svg/emoji_u1f9c3.svg

<svg width="128" height="128" viewBox="0 0 128 128" fill="none" xmlns="http://www.w3.org/2000/svg">
<path d="M56.3901 48.7399L26.2201 33.7999C26.2201 33.7999 26.1501 32.3699 27.5001 31.6499C28.8601 30.9299 50.2401 22.1699 51.9601 22.1699C53.6801 22.1699 63.7501 24.1099 71.0801 25.7399C78.4101 27.3699 97.7801 31.5299 97.8701 32.7999C97.9601 34.0699 78.0501 54.4299 78.0501 54.4299L56.3901 48.7399Z" fill="#C3FECE" style="fill:#C3FECE;fill:color(display-p3 0.7647 0.9961 0.8078);fill-opacity:1;"/>
<path d="M83.9099 39.42C83.9099 39.42 71.2599 35.7 58.9499 32.81C53.2199 31.46 36.3799 27.93 36.3799 27.93C36.3799 27.93 38.1699 27.15 39.5199 26.58C40.8899 26.01 41.9799 25.71 41.9799 25.71C41.9799 25.71 52.9599 27.9 61.1199 29.64C72.1599 31.99 87.6099 36.6 87.9699 37.33C88.3399 38.05 83.9099 39.42 83.9099 39.42Z" fill="white" style="fill:white;fill-opacity:1;"/>
<path d="M59.41 35.9199C56.72 37.7899 59.36 38.9199 64.32 40.0799C69.75 41.3499 73.89 43.2199 77.38 41.1899C80.53 39.3699 72.82 37.3899 69.28 36.6299C66.58 36.0499 61.49 34.4799 59.41 35.9199Z" fill="#ACB1B2" style="fill:#ACB1B2;fill:color(display-p3 0.6745 0.6941 0.6980);fill-opacity:1;"/>
<path d="M69.27 39.68C69.25 39.68 69.36 17.77 69.36 16.96C69.36 16.15 68.45 15.42 69.45 13.7C70.45 11.98 73.07 12.16 73.07 12.16C73.07 12.16 83.94 9.00004 88.28 7.91004C92.62 6.82004 102.22 4.29004 102.22 4.29004L102.86 9.78004C102.86 9.78004 92.8 12.62 87.82 13.89C82.84 15.16 76.05 17.24 76.05 17.24L75.05 18.15L75.34 39.56C75.34 39.56 74.41 40.6 72.33 40.6C70.31 40.59 69.27 39.68 69.27 39.68Z" fill="#FFD816" style="fill:#FFD816;fill:color(display-p3 1.0000 0.8471 0.0863);fill-opacity:1;"/>
<path d="M100.43 7.09994C100.51 8.80994 101.42 9.86994 102.5 9.86994C103.58 9.86994 104.32 8.48994 104.16 6.68994C103.99 4.89994 102.83 4.07994 101.84 4.40994C100.85 4.73994 100.37 5.84994 100.43 7.09994Z" fill="#FEB804" style="fill:#FEB804;fill:color(display-p3 0.9961 0.7216 0.0157);fill-opacity:1;"/>
<path d="M75.0701 18.6501C74.8801 18.6501 74.6901 18.6001 74.5201 18.4801L69.3301 15.0201C68.8701 14.7101 68.7501 14.0901 69.0501 13.6301C69.3601 13.1701 69.9701 13.0401 70.4401 13.3501L75.6301 16.8101C76.0901 17.1201 76.2101 17.7401 75.9101 18.2001C75.7101 18.4901 75.3901 18.6501 75.0701 18.6501Z" fill="#FEB804" style="fill:#FEB804;fill:color(display-p3 0.9961 0.7216 0.0157);fill-opacity:1;"/>
<path d="M75.87 17.81C75.57 17.81 75.27 17.67 75.07 17.41C73.74 15.64 72.22 13.63 71.95 13.32C71.61 12.99 71.54 12.45 71.81 12.04C72.12 11.58 72.73 11.45 73.2 11.76C73.38 11.88 73.48 11.95 76.67 16.2C77 16.64 76.7 17.27 76.26 17.6C76.08 17.74 76.08 17.81 75.87 17.81Z" fill="#FEB804" style="fill:#FEB804;fill:color(display-p3 0.9961 0.7216 0.0157);fill-opacity:1;"/>
<path d="M74.6499 19.49C74.5999 19.49 74.5499 19.49 74.4899 19.48L69.4899 18.69C68.9499 18.6 68.5699 18.09 68.6599 17.55C68.7499 17.01 69.2499 16.63 69.7999 16.72L74.7999 17.51C75.3399 17.6 75.8099 17.7 75.7199 18.25C75.6499 18.73 75.1399 19.49 74.6499 19.49Z" fill="#FEB804" style="fill:#FEB804;fill:color(display-p3 0.9961 0.7216 0.0157);fill-opacity:1;"/>
<path d="M26.1799 33.6899C27.7699 33.6899 40.5299 37.0399 47.1099 38.2499C53.6899 39.4599 73.5599 44.1599 74.2299 44.2899C74.8999 44.4199 74.7699 53.0199 74.7699 53.0199C74.7699 53.0199 84.1699 101.62 83.8999 103.91C83.6299 106.19 77.4599 123.78 77.4599 123.78C77.4599 123.78 73.8299 124.32 64.5699 121.63C55.3099 118.94 30.8699 112.23 29.3899 110.35C27.9099 108.47 28.8499 83.6299 28.0499 68.3299C27.2299 53.0199 26.1799 33.6899 26.1799 33.6899Z" fill="#79DD8A" style="fill:#79DD8A;fill:color(display-p3 0.4745 0.8667 0.5412);fill-opacity:1;"/>
<path d="M100.27 111.42C100.78 109.73 97.94 91.6099 97.54 74.9599C97.14 58.3199 98.57 32.9999 97.88 32.7999C97.19 32.6099 74.23 44.2899 74.23 44.2899C74.23 44.2899 74.13 60.8099 74.41 76.3899C74.77 96.5499 76.38 123.24 77.45 123.78C78.52 124.32 87.81 119.12 90.61 117.6C95.57 114.91 99.87 112.77 100.27 111.42Z" fill="#02AB46" style="fill:#02AB46;fill:color(display-p3 0.0078 0.6706 0.2745);fill-opacity:1;"/>
<path d="M83.8401 51.9399L83.8901 39.3999L88.0001 37.3799L88.1201 51.1299L86.2201 54.4599L83.8401 51.9399Z" fill="#DBDFE1" style="fill:#DBDFE1;fill:color(display-p3 0.8588 0.8745 0.8824);fill-opacity:1;"/>
<path d="M47.45 56.34C38.57 55.39 32.42 63.31 32.9 73.63C33.47 85.82 41.5 94.8 50.19 96.59C58.88 98.38 67.3 94.61 67.48 81.28C67.68 67.39 55.47 57.19 47.45 56.34Z" fill="#FEFEFD" style="fill:#FEFEFD;fill:color(display-p3 0.9961 0.9961 0.9922);fill-opacity:1;"/>
<path d="M49.7099 70.4885C49.7099 70.4885 45.5572 65.3134 41.8195 69.6304C38.0817 73.9475 40.8712 87.2264 50.7615 87.9644C60.263 88.6713 62.8149 75.241 57.807 70.585C53.2471 66.3314 49.7099 70.4885 49.7099 70.4885Z" fill="#EF5B44" style="fill:#EF5B44;fill:color(display-p3 0.9373 0.3569 0.2667);fill-opacity:1;"/>
<path d="M44.7472 64.088C44.3427 64.6134 45.0479 67.3528 46.6255 69.4226C47.8065 70.97 50.1424 72.6558 50.8037 72.0508C51.3301 71.5659 50.5374 68.4853 48.9484 66.4606C47.1099 64.1293 45.2162 63.4725 44.7472 64.088Z" fill="#B8CF17" style="fill:#B8CF17;fill:color(display-p3 0.7216 0.8118 0.0902);fill-opacity:1;"/>
<path d="M86.6901 55.4301C84.3901 55.4301 74.5801 45.6801 74.4901 45.5801C74.1301 45.1601 74.1801 44.5301 74.6001 44.1701C75.0201 43.8101 75.6401 43.8601 76.0101 44.2701C76.6401 44.9701 84.1401 51.9301 86.3001 53.2701C87.7001 51.1801 92.2501 42.0301 96.1601 33.7701C96.4001 33.2701 97.0001 33.0601 97.4901 33.2901C97.9901 33.5301 98.2001 34.1201 97.9701 34.6201C88.3301 54.9901 87.3801 55.2601 86.8701 55.4001C86.8101 55.4301 86.7501 55.4301 86.6901 55.4301Z" fill="#2D802D" style="fill:#2D802D;fill:color(display-p3 0.1765 0.5020 0.1765);fill-opacity:1;"/>
</svg>

<?xml version="1.0" encoding="utf-8"?>
<!-- Generator: Adobe Illustrator 25.2.3, SVG Export Plug-In . SVG Version: 6.00 Build 0)  -->
<svg version="1.1" id="Layer_3" xmlns="http://www.w3.org/2000/svg" xmlns:xlink="http://www.w3.org/1999/xlink" x="0px" y="0px"
	 viewBox="0 0 128 128" style="enable-background:new 0 0 128 128;" xml:space="preserve">
<path style="fill:#C3FECE;" d="M56.39,48.74L26.22,33.8c0,0-0.07-1.43,1.28-2.15c1.36-0.72,22.74-9.48,24.46-9.48
	s11.79,1.94,19.12,3.57c7.33,1.63,26.7,5.79,26.79,7.06c0.09,1.27-19.82,21.63-19.82,21.63L56.39,48.74z"/>
<path style="fill:#FFFFFF;" d="M83.91,39.42c0,0-12.65-3.72-24.96-6.61c-5.73-1.35-22.57-4.88-22.57-4.88s1.79-0.78,3.14-1.35
	c1.37-0.57,2.46-0.87,2.46-0.87s10.98,2.19,19.14,3.93c11.04,2.35,26.49,6.96,26.85,7.69C88.34,38.05,83.91,39.42,83.91,39.42z"/>
<path style="fill:#ACB1B2;" d="M59.41,35.92c-2.69,1.87-0.05,3,4.91,4.16c5.43,1.27,9.57,3.14,13.06,1.11
	c3.15-1.82-4.56-3.8-8.1-4.56C66.58,36.05,61.49,34.48,59.41,35.92z"/>
<path style="fill:#FFD816;" d="M69.27,39.68c-0.02,0,0.09-21.91,0.09-22.72s-0.91-1.54,0.09-3.26c1-1.72,3.62-1.54,3.62-1.54
	S83.94,9,88.28,7.91s13.94-3.62,13.94-3.62l0.64,5.49c0,0-10.06,2.84-15.04,4.11c-4.98,1.27-11.77,3.35-11.77,3.35l-1,0.91
	l0.29,21.41c0,0-0.93,1.04-3.01,1.04C70.31,40.59,69.27,39.68,69.27,39.68z"/>
<path style="fill:#FEB804;" d="M100.43,7.1c0.08,1.71,0.99,2.77,2.07,2.77c1.08,0,1.82-1.38,1.66-3.18
	c-0.17-1.79-1.33-2.61-2.32-2.28C100.85,4.74,100.37,5.85,100.43,7.1z"/>
<g>
	<path style="fill:#FEB804;" d="M75.07,18.65c-0.19,0-0.38-0.05-0.55-0.17l-5.19-3.46c-0.46-0.31-0.58-0.93-0.28-1.39
		c0.31-0.46,0.92-0.59,1.39-0.28l5.19,3.46c0.46,0.31,0.58,0.93,0.28,1.39C75.71,18.49,75.39,18.65,75.07,18.65z"/>
</g>
<g>
	<path style="fill:#FEB804;" d="M75.87,17.81c-0.3,0-0.6-0.14-0.8-0.4c-1.33-1.77-2.85-3.78-3.12-4.09
		c-0.34-0.33-0.41-0.87-0.14-1.28c0.31-0.46,0.92-0.59,1.39-0.28c0.18,0.12,0.28,0.19,3.47,4.44c0.33,0.44,0.03,1.07-0.41,1.4
		C76.08,17.74,76.08,17.81,75.87,17.81z"/>
</g>
<g>
	<path style="fill:#FEB804;" d="M74.65,19.49c-0.05,0-0.1,0-0.16-0.01l-5-0.79c-0.54-0.09-0.92-0.6-0.83-1.14
		c0.09-0.54,0.59-0.92,1.14-0.83l5,0.79c0.54,0.09,1.01,0.19,0.92,0.74C75.65,18.73,75.14,19.49,74.65,19.49z"/>
</g>
<path style="fill:#79DD8A;" d="M26.18,33.69c1.59,0,14.35,3.35,20.93,4.56s26.45,5.91,27.12,6.04s0.54,8.73,0.54,8.73
	s9.4,48.6,9.13,50.89c-0.27,2.28-6.44,19.87-6.44,19.87s-3.63,0.54-12.89-2.15s-33.7-9.4-35.18-11.28s-0.54-26.72-1.34-42.02
	C27.23,53.02,26.18,33.69,26.18,33.69z"/>
<path style="fill:#02AB46;" d="M100.27,111.42c0.51-1.69-2.33-19.81-2.73-36.46C97.14,58.32,98.57,33,97.88,32.8
	c-0.69-0.19-23.65,11.49-23.65,11.49s-0.1,16.52,0.18,32.1c0.36,20.16,1.97,46.85,3.04,47.39c1.07,0.54,10.36-4.66,13.16-6.18
	C95.57,114.91,99.87,112.77,100.27,111.42z"/>
<polygon style="fill:#DBDFE1;" points="83.84,51.94 83.89,39.4 88,37.38 88.12,51.13 86.22,54.46 "/>
<path style="fill:#FEFEFD;" d="M47.45,56.34c-8.88-0.95-15.03,6.97-14.55,17.29c0.57,12.19,8.6,21.17,17.29,22.96
	s17.11-1.98,17.29-15.31C67.68,67.39,55.47,57.19,47.45,56.34z"/>
<path style="fill:#EF5B44;" d="M53.37,67.47c0,0-1.8-6.05-7.21-4.44c-5.41,1.61-8.34,13.38,0.84,18.68
	c8.82,5.09,16.94-4.25,14.1-10.3C58.52,65.89,53.37,67.47,53.37,67.47z"/>
<path style="fill:#B8CF17;" d="M51.31,60.07c-0.61,0.22-1.09,2.71-0.45,5.09c0.48,1.78,2.01,4.22,2.9,4.06
	c0.71-0.13,1.25-2.93,0.58-5.28C53.56,61.23,52.02,59.81,51.31,60.07z"/>
<path style="fill:#FD8F01;" d="M51.18,74.11c-2.54-0.77-5.4,7.96-0.26,13.4c5.67,5.99,12.29,0.71,12.11-0.45
	c-0.26-1.61-4.7-2.77-6.89-5.47C53.95,78.87,52.66,74.56,51.18,74.11z"/>
<path style="fill:#A281D0;" d="M43.06,72.63c0,0,0.51-3.82-3.03-3.61c-3.42,0.21-2.58,4.25-2.58,4.25s-2.85,0.34-2.37,3.5
	c0.36,2.39,2.88,2.36,2.88,2.36s-2.77,1.09-1.51,4.25c1.12,2.81,3.7,1.68,3.7,1.68s-0.95,2.74,1.29,4.19
	c1.89,1.22,3.54,0.19,3.54,0.19s-0.1,2.34,2.51,2.77c3.16,0.52,4.53-3.33,2.28-5.11c-1.71-1.35-3.26-0.3-3.26-0.3
	s0.32-0.75,0.02-1.61c-0.2-0.56-0.52-0.77-0.52-0.77s2.77-0.26,2.32-3.41c-0.45-3.16-3.22-2.77-3.22-2.77s1.61-1.29,0.97-3.61
	C45.45,72.3,43.06,72.63,43.06,72.63z"/>
<g>
	<path style="fill:#2D802D;" d="M86.69,55.43c-2.3,0-12.11-9.75-12.2-9.85c-0.36-0.42-0.31-1.05,0.11-1.41
		c0.42-0.36,1.04-0.31,1.41,0.1c0.63,0.7,8.13,7.66,10.29,9c1.4-2.09,5.95-11.24,9.86-19.5c0.24-0.5,0.84-0.71,1.33-0.48
		c0.5,0.24,0.71,0.83,0.48,1.33c-9.64,20.37-10.59,20.64-11.1,20.78C86.81,55.43,86.75,55.43,86.69,55.43z"/>
</g>
</svg>
